X:490
T: John Flynn's
S: B.Breathnach:"Ceol Rince na hEireann" IV/5 (gan ainm)
Z: B.Black
N: No repeats
L: 1/8
M: 6/8
R: jig
K: G
G2G G2G|BAG Bcd|GGG GGG|EAG FED|
G2G G2G|BAG Bcd|efg dcB|ABG FED ||
Bcd dBd|dBd dcB|cde ece|ece edc|
Bcd dBd|dBd def|gfe dcB|ABG FED ||
